X:4840
T:Polska fr Fyn
B:Rasmus Storm
M:3/4
O:Denmark
R:Polska
Z:Richard Robinson 
%%TUNEURL: http://www.leeds.ac.uk/music/Info/RRTuneBk/gettune/00000a7a.html
%%ID:00000a7a
K:D min
[G2B2] [G,2D2] [A2c2] | \
[GB][G,D] [GB][Bd] [Ac][FA] |\
[G2B2] [G,2D2] [A2c2] |\
[GB][G,D] [GB][Bd] [Ac][GB] |\
[G3/B3/][F/A/] [FA][DF] [A,2D2] :|
|: \
[A3/d3/][^c/e/] [df][eg] [fa][df] |\
[g3/b3/][f/a/] [fa][df] [eg][fa] |\
%%%(3[df][eg][df] (3[^ce][Ac][ce] [E2A2] |
(3fgf (3e^ce [E2A2] |
[A3/d3/][^c/e/] [df][eg] [fa][df] |\
[g3/b3/][f/a/] [fa][df] [eg][fa] |\
%%%(3[df][eg][df] (3[^ce][Ac][ce] [D2d2]
(3fgf (3e^ce [D2d2]
